startshape Foo

path box {
    MOVETO( 0.5,  0.5)
    LINETO(-0.5,  0.5)
    LINETO(-0.5, -0.5)
    LINETO( 0.5, -0.5)
    CLOSEPOLY()
    STROKE()[]
}

shape Foo {
    box []
	Foo [x 0.8 size 0.8 rotate 40.0 y 0.8 b 0.2 h 0.1 sat 0.1]
}
