CF::Background = [hue 200 sat 1 b -0.6]
CF::MinimumSize = 10

startshape Foo [r 15.0]

shape Foo {
    SQUARE []
    CIRCLE [x 1.0]
    TRIANGLE [y 0.7 s 0.5]
	Foo [x 0.8 size 0.8 rotate 40.0 y 0.8 b 0.2 h 0.1 sat 0.1]
}
