CFDG3

CF::Impure = 1

startshape Foo

shape flake {
    clone CF::Dihedral, 6
    {
        SPIKE []
    }
}

shape Foo {
    flake []
	//Foo [x 0.8 size 0.8 rotate 40.0 y 0.8 b 0.2 h 0.1 sat 0.1]
}
