CFDG3

startshape Foo

rad2deg(n) = n * 180 / 3.1415926535

angle(n, m) = rad2deg(n) * m

shape Foo {
    SQUARE []
	Foo [x 0.8 size 0.8 rotate angle(3.1415926535 / 6.0, 1) y 0.8 b 0.2 h 0.1 sat 0.1]
}
