startshape Foo

path box(number filled)
{
    loop 4 [r (90)]
        LINETO(0, 1)
    CLOSEPOLY()
    if (filled) FILL[a -0.5]
    STROKE[]
}

shape Foo {
    box (1) []
	Foo [x 0.8 size 0.8 rotate 40.0 y 0.8 b 0.2 h 0.1 sat 0.1]
}
