startshape Foo

path flower(number petals)
{
  MOVETO(cos(-180/petals), sin(-180/petals))
  loop petals [r (360/petals)]
    ARCTO(cos(180/petals), sin(180/petals), 0.4, 0.4 + 0.2 * (petals - 5), 90)
  CLOSEPOLY()
  STROKE[a -0.5]
  MOVETO(0.65, 0)
  ARCTO(-0.65, 0, 0.65)
  ARCTO( 0.65, 0, 0.65)
  CLOSEPOLY()
  FILL(CF::EvenOdd) [a -0.5]
}

shape Foo {
    flower (5) []
	Foo [x 0.8 size 0.8 rotate 40.0 y 0.8 b 0.2 h 0.1 sat 0.1]
}
